svgs/thin/square-arrow-up-right.svg

<svg xmlns="http://www.w3.org/2000/svg" viewBox="0 0 448 512"><!--! Font Awesome Pro 6.3.0 by @fontawesome - https://fontawesome.com License - https://fontawesome.com/license (Commercial License) Copyright 2023 Fonticons, Inc. --><path d="M130.3 338.3c-3.117 3.117-3.127 8.188 0 11.31c3.125 3.129 8.197 3.117 11.31 0l162.3-162.3V328c0 4.422 3.58 8 7.998 8c4.424 0 8-3.578 8-8v-160C320 163.6 316.4 160 312 160h-160C147.6 160 144 163.6 144 168c0 4.418 3.58 8 8 8h140.7L130.3 338.3zM0 96v320c0 35.35 28.65 64 64 64h320c35.35 0 64-28.65 64-64V96c0-35.34-28.65-64-64-64H64C28.65 32 0 60.66 0 96zM16 96c0-26.47 21.53-48 48-48h320c26.47 0 48 21.53 48 48v320c0 26.47-21.53 48-48 48H64c-26.47 0-48-21.53-48-48V96z"/></svg>

<svg xmlns="http://www.w3.org/2000/svg" viewBox="0 0 448 512"><!-- Font Awesome Pro 6.0.0-alpha2 by @fontawesome - https://fontawesome.com License - https://fontawesome.com/license (Commercial License) --><path d="M130.342 338.344C127.225 341.461 127.215 346.531 130.342 349.656C133.467 352.785 138.539 352.773 141.654 349.656L304.002 187.312V328C304.002 332.422 307.582 336 312 336C316.424 336 320 332.422 320 328V168C320 163.578 316.42 160 312 160H152C147.58 160 144 163.578 144 168C144 172.418 147.58 176 152 176H292.688L130.342 338.344ZM0 96V416C0 451.348 28.652 480 64 480H384C419.348 480 448 451.348 448 416V96C448 60.656 419.348 32 384 32H64C28.652 32 0 60.656 0 96ZM16 96C16 69.531 37.531 48 64 48H384C410.469 48 432 69.531 432 96V416C432 442.469 410.469 464 384 464H64C37.531 464 16 442.469 16 416V96Z"/></svg>
